X: 27
T: No_120_Pawakone's_War_Song_(b).krn
N: Derived from No_120_Pawakone's_War_Song_(b).krn
%%abc-version 2.0
%%abcx-abcm2ps-target-version 5.9.1 (29 Sep 2008)
%%abc-creator hum2abc beta
%%abcx-conversion-date 2019/03/15 08:35:44
%%humdrum-veritas 1249281721
%%humdrum-veritas-data 745714723
%%linebreak <none>
%%barnumbers 0
L: 1/16
M: 2/4
K: B clef=bass
[K:clef=bass][M:2/4]z4z2 z D | 
D2DC D3D ||  
[M:3/4]D3DD4B,3D ||  
[M:2/4]D2DC B,3G, | 
G,3G,G,4 ||  
[M:5/8]G,4B,2A,2G,2 ||  
[M:3/4]G,7G,G,4 | 
G,4G,4G,2 z2 ||  
[M:2/4]B,4D3B, | 
B,3B, A,G,G, z/ A,/ | 
A,2B,A, G,3F, ||  
[M:3/4]D,3D,D,4B,,2 z D, ||  
[M:2/4]D,2D,D, B,,3G,, | 
G,,8 | 
G,,8 |]  



